X:21089 
T:HUMORS OF SCARIFF (reel), The
T:"Andy McGann's #2"
B:DMI.0776
Z:Nordberg/Black
R:reel
%Q:1/4=180
M:C
L:1/8
K:Dm
Adde f2ed|cAGc AcGc|Adde f2ed|cAGE EDD2:|
ecgc acgc|ecgc eaa2|ecgc acec|edcd edd2|
ecgc acgc|ecgc eaa2|ea2a ged^B|cAGE EDD2|]

%%%

